X:18
T:Blackhaired Lass, The
R:reel
S:https://thesession.org/tunes/237
M:4/4
L:1/8
Z:Will Harmon
K:Dmajor
AB|:cBAB cdec|d2 gd BGGB|cBAB cdec|dfec A2 AB:|
|cdef g2 ge|f2 fd gfed|cdef ~g3e|fdec A2 AB|
|cdef gfeg|~f3d g2 fg|(3agf ge fdec|dfec A2 AB|

